assets/img/podcast/listen/castbox.svg

<svg xmlns="http://www.w3.org/2000/svg" width="100" height="30" fill="none" viewBox="0 0 100 30"><rect width="100" height="30" fill="#fff"/><rect width="100" height="30" fill="url(#paint0_linear)"/><path fill="#fff" d="M18.8679 11.0179V18.3491C18.8679 18.6338 18.7548 18.9068 18.5533 19.1081C18.3519 19.3094 18.0787 19.4225 17.7938 19.4225C17.509 19.4225 17.2358 19.3094 17.0344 19.1081C16.8329 18.9068 16.7198 18.6338 16.7198 18.3491V16.2882C16.6805 16.13 16.5894 15.9895 16.4609 15.889C16.3324 15.7886 16.174 15.734 16.0109 15.734C15.8478 15.734 15.6893 15.7886 15.5609 15.889C15.4324 15.9895 15.3413 16.13 15.302 16.2882V18.1988C15.302 18.4835 15.1888 18.7565 14.9874 18.9578C14.786 19.1591 14.5128 19.2722 14.2279 19.2722C13.943 19.2722 13.6698 19.1591 13.4684 18.9578C13.267 18.7565 13.1538 18.4835 13.1538 18.1988V15.6335C13.1347 15.5387 13.0969 15.4487 13.0426 15.3687C12.9884 15.2887 12.9188 15.2202 12.8378 15.1673C12.7569 15.1143 12.6662 15.078 12.5711 15.0604C12.476 15.0427 12.3784 15.0442 12.2838 15.0646C12.145 15.0938 12.0179 15.1634 11.9185 15.2646C11.8191 15.3658 11.7519 15.4942 11.7253 15.6335V20.8071C11.7253 21.0918 11.6121 21.3648 11.4107 21.5661C11.2093 21.7674 10.9361 21.8805 10.6512 21.8805C10.3664 21.8805 10.0932 21.7674 9.89175 21.5661C9.69032 21.3648 9.57716 21.0918 9.57716 20.8071V16.9966C9.54223 16.8332 9.45225 16.6867 9.32225 16.5816C9.19225 16.4765 9.03011 16.4192 8.8629 16.4192C8.69569 16.4192 8.53354 16.4765 8.40354 16.5816C8.27354 16.6867 8.18356 16.8332 8.14864 16.9966V17.2757C8.14864 17.5604 8.03547 17.8334 7.83405 18.0347C7.63262 18.236 7.35942 18.3491 7.07456 18.3491C6.7897 18.3491 6.5165 18.236 6.31507 18.0347C6.11364 17.8334 6.00048 17.5604 6.00048 17.2757V13.9697C5.99625 13.8288 6.01984 13.6884 6.06991 13.5565C6.11998 13.4247 6.19554 13.304 6.29229 13.2013C6.38903 13.0986 6.50506 13.016 6.63376 12.9582C6.76245 12.9003 6.90129 12.8684 7.04234 12.8641C7.18339 12.8599 7.32389 12.8835 7.45582 12.9335C7.58775 12.9836 7.70853 13.0591 7.81126 13.1558C7.91399 13.2524 7.99666 13.3684 8.05455 13.497C8.11243 13.6256 8.1444 13.7644 8.14864 13.9053V14.2488C8.18356 14.4122 8.27354 14.5587 8.40354 14.6638C8.53354 14.7689 8.69569 14.8262 8.8629 14.8262C9.03011 14.8262 9.19225 14.7689 9.32225 14.6638C9.45225 14.5587 9.54223 14.4122 9.57716 14.2488V11.8766C9.57716 11.592 9.69032 11.3189 9.89175 11.1177C10.0932 10.9164 10.3664 10.8033 10.6512 10.8033C10.9361 10.8033 11.2093 10.9164 11.4107 11.1177C11.6121 11.3189 11.7253 11.592 11.7253 11.8766V12.8749C11.7432 12.9692 11.7798 13.059 11.833 13.1389C11.8862 13.2189 11.9548 13.2874 12.0349 13.3404C12.115 13.3934 12.2049 13.4299 12.2993 13.4476C12.3937 13.4654 12.4907 13.4641 12.5846 13.4438C12.7237 13.4126 12.851 13.3426 12.9518 13.2419C13.0526 13.1412 13.1227 13.0139 13.1538 12.8749V10.0734C13.1538 9.7887 13.267 9.51568 13.4684 9.31438C13.6698 9.11309 13.943 9 14.2279 9C14.5128 9 14.786 9.11309 14.9874 9.31438C15.1888 9.51568 15.302 9.7887 15.302 10.0734V13.5404C15.3211 13.6337 15.3586 13.7224 15.4123 13.8011C15.466 13.8798 15.5348 13.9471 15.6148 13.9991C15.6947 14.051 15.7842 14.0865 15.878 14.1036C15.9718 14.1207 16.0681 14.119 16.1612 14.0985C16.2953 14.0704 16.4188 14.0052 16.5176 13.9103C16.6164 13.8154 16.6864 13.6946 16.7198 13.5618V10.9857C16.7198 10.7011 16.8329 10.428 17.0344 10.2268C17.2358 10.0255 17.509 9.91237 17.7938 9.91237C18.0787 9.91237 18.3519 10.0255 18.5533 10.2268C18.7548 10.428 18.8679 10.7011 18.8679 10.9857V11.0179ZM21.3598 12.8105C21.0749 12.8105 20.8017 12.9236 20.6003 13.1249C20.3989 13.3262 20.2857 13.5992 20.2857 13.8839V18.07C20.2857 18.3547 20.3989 18.6277 20.6003 18.829C20.8017 19.0303 21.0749 19.1434 21.3598 19.1434C21.6446 19.1434 21.9178 19.0303 22.1193 18.829C22.3207 18.6277 22.4339 18.3547 22.4339 18.07V13.8839C22.4339 13.5992 22.3207 13.3262 22.1193 13.1249C21.9178 12.9236 21.6446 12.8105 21.3598 12.8105ZM24.9257 14.9572C24.6408 14.9572 24.3677 15.0703 24.1662 15.2716C23.9648 15.4729 23.8516 15.7459 23.8516 16.0306V17.104C23.8516 17.3887 23.9648 17.6617 24.1662 17.863C24.3677 18.0643 24.6408 18.1774 24.9257 18.1774C25.2106 18.1774 25.4838 18.0643 25.6852 17.863C25.8866 17.6617 25.9998 17.3887 25.9998 17.104V16.0306C26.0026 15.8878 25.977 15.746 25.9243 15.6132C25.8716 15.4805 25.7929 15.3597 25.6929 15.2577C25.5929 15.1557 25.4735 15.0748 25.3418 15.0195C25.21 14.9642 25.0686 14.9357 24.9257 14.9358V14.9572Z"/><rect width="66" height="24" x="31" y="3" fill="#fff"/><path fill="#000" d="M47.6523 19.1758C49.2783 19.1758 50.4697 18.2041 50.6357 16.7637H49.3955C49.2246 17.5547 48.5459 18.0527 47.6523 18.0527C46.4512 18.0527 45.7041 17.0664 45.7041 15.4746C45.7041 13.8877 46.4512 12.9014 47.6475 12.9014C48.5361 12.9014 49.2148 13.4482 49.3906 14.293H50.6309C50.4844 12.8232 49.249 11.7783 47.6475 11.7783C45.6504 11.7783 44.415 13.1895 44.415 15.4795C44.415 17.7598 45.6553 19.1758 47.6523 19.1758ZM53.7363 18.1357C53.1992 18.1357 52.8135 17.8672 52.8135 17.418C52.8135 16.9834 53.1309 16.7393 53.8096 16.6953L55.0156 16.6172V17.042C55.0156 17.6621 54.4688 18.1357 53.7363 18.1357ZM53.3799 19.0879C54.0781 19.0879 54.6641 18.7852 54.9619 18.2676H55.0449V19H56.2119V15.3525C56.2119 14.2197 55.4404 13.5508 54.0684 13.5508C52.7988 13.5508 51.915 14.1514 51.8174 15.0938H52.96C53.0723 14.7324 53.4531 14.5371 54.0098 14.5371C54.6641 14.5371 55.0156 14.8301 55.0156 15.3525V15.8018L53.6387 15.8848C52.3398 15.9629 51.6123 16.5195 51.6123 17.4863C51.6123 18.4629 52.3496 19.0879 53.3799 19.0879ZM57.5498 15.1865C57.5498 15.9922 58.0332 16.4658 59.0586 16.7002L60.0059 16.9199C60.5137 17.0322 60.7432 17.2227 60.7432 17.5254C60.7432 17.9209 60.3184 18.1895 59.708 18.1895C59.1025 18.1895 58.7266 17.9551 58.6094 17.5596H57.4131C57.5059 18.5312 58.3457 19.1074 59.6787 19.1074C61.0117 19.1074 61.9541 18.4238 61.9541 17.3984C61.9541 16.6123 61.4805 16.1729 60.46 15.9434L59.5176 15.7285C58.9805 15.6064 58.7266 15.4209 58.7266 15.1182C58.7266 14.7324 59.1416 14.4688 59.6934 14.4688C60.2598 14.4688 60.6162 14.708 60.7041 15.084H61.8418C61.7539 14.1123 60.958 13.5508 59.6885 13.5508C58.4287 13.5508 57.5498 14.2197 57.5498 15.1865ZM63.5264 12.3496V13.6924H62.6816V14.6592H63.5264V17.5742C63.5264 18.6094 64.0146 19.0244 65.2402 19.0244C65.4746 19.0244 65.6992 19 65.875 18.9658V18.0186C65.7285 18.0332 65.6357 18.043 65.4648 18.043C64.957 18.043 64.7324 17.8086 64.7324 17.2812V14.6592H65.875V13.6924H64.7324V12.3496H63.5264ZM70.0547 19.0879C71.4023 19.0879 72.2471 18.0283 72.2471 16.3291C72.2471 14.6201 71.4072 13.5703 70.0547 13.5703C69.3223 13.5703 68.707 13.9268 68.4287 14.5078H68.3457V11.5928H67.1348V19H68.3018V18.1553H68.3848C68.6875 18.7412 69.3076 19.0879 70.0547 19.0879ZM69.6738 14.6006C70.499 14.6006 71.002 15.2549 71.002 16.3291C71.002 17.4033 70.5039 18.0576 69.6738 18.0576C68.8438 18.0576 68.3262 17.3936 68.3262 16.3291C68.3262 15.2646 68.8486 14.6006 69.6738 14.6006ZM75.7676 19.1074C77.3643 19.1074 78.3359 18.0625 78.3359 16.3291C78.3359 14.6006 77.3594 13.5508 75.7676 13.5508C74.1807 13.5508 73.1992 14.6055 73.1992 16.3291C73.1992 18.0625 74.166 19.1074 75.7676 19.1074ZM75.7676 18.0918C74.9229 18.0918 74.4395 17.4473 74.4395 16.3291C74.4395 15.2158 74.9229 14.5664 75.7676 14.5664C76.6074 14.5664 77.0908 15.2158 77.0908 16.3291C77.0908 17.4473 76.6123 18.0918 75.7676 18.0918ZM81.3633 17.1592L82.457 19H83.8242L82.0811 16.2998L83.8047 13.6582H82.4717L81.417 15.4941H81.334L80.2695 13.6582H78.8682L80.6113 16.3486L78.8828 19H80.1865L81.2803 17.1592H81.3633Z"/><defs><linearGradient id="paint0_linear" x1="50" x2="50" y1="0" y2="30" gradientUnits="userSpaceOnUse"><stop stop-color="#FF9E57"/><stop offset="1" stop-color="#FF5321"/></linearGradient></defs></svg>

<svg xmlns="http://www.w3.org/2000/svg" width="100" height="30" fill="none"><path fill="#fff" d="M0 0H100V30H0z"/><path fill="url(#paint0_linear)" d="M0 0H100V30H0z"/><path fill="#fff" d="M18.868 11.018v7.331a1.073 1.073 0 0 1-1.834.76 1.073 1.073 0 0 1-.314-.76v-2.06a.73.73 0 0 0-1.418 0v1.91a1.073 1.073 0 0 1-2.148 0v-2.566a.727.727 0 0 0-.87-.568.72.72 0 0 0-.559.569v5.173a1.073 1.073 0 0 1-2.148 0v-3.81a.73.73 0 0 0-1.428 0v.279a1.073 1.073 0 0 1-2.149 0V13.97a1.074 1.074 0 0 1 2.149-.065v.344a.73.73 0 0 0 1.428 0v-2.372a1.073 1.073 0 0 1 1.834-.76c.201.202.314.475.314.76v.998a.718.718 0 0 0 .86.569.752.752 0 0 0 .569-.57v-2.8a1.073 1.073 0 0 1 2.148 0v3.466a.718.718 0 0 0 .86.559.73.73 0 0 0 .558-.537v-2.576a1.072 1.072 0 0 1 1.833-.76c.202.202.315.475.315.76v.032zm2.492 1.792a1.074 1.074 0 0 0-1.074 1.074v4.186a1.073 1.073 0 0 0 2.148 0v-4.186a1.073 1.073 0 0 0-1.074-1.074zm3.566 2.147a1.075 1.075 0 0 0-1.074 1.074v1.073a1.073 1.073 0 0 0 2.148 0v-1.073a1.074 1.074 0 0 0-1.074-1.095v.021z"/><path fill="#fff" d="M31 3H97V27H31z"/><path fill="#000" d="M47.652 19.176c1.626 0 2.818-.972 2.984-2.412h-1.24c-.171.79-.85 1.289-1.744 1.289-1.2 0-1.948-.987-1.948-2.578 0-1.587.747-2.574 1.944-2.574.888 0 1.567.547 1.743 1.392h1.24c-.147-1.47-1.382-2.515-2.983-2.515-1.998 0-3.233 1.412-3.233 3.701 0 2.28 1.24 3.697 3.237 3.697zm6.084-1.04c-.537 0-.922-.269-.922-.718 0-.435.317-.679.996-.723l1.206-.078v.425c0 .62-.547 1.094-1.28 1.094zm-.356.952c.698 0 1.284-.303 1.582-.82h.083V19h1.167v-3.648c0-1.132-.772-1.801-2.144-1.801-1.27 0-2.153.6-2.25 1.543h1.142c.112-.362.493-.557 1.05-.557.654 0 1.006.293 1.006.815v.45l-1.377.083c-1.3.078-2.027.635-2.027 1.601 0 .977.738 1.602 1.768 1.602zm4.17-3.902c0 .806.483 1.28 1.509 1.514l.947.22c.508.112.737.303.737.605 0 .396-.425.665-1.035.665-.605 0-.981-.235-1.099-.63h-1.196c.093.971.933 1.547 2.266 1.547s2.275-.683 2.275-1.709c0-.786-.474-1.225-1.494-1.455l-.942-.214c-.538-.123-.791-.308-.791-.61 0-.387.415-.65.966-.65.567 0 .923.239 1.011.615h1.138c-.088-.972-.884-1.533-2.154-1.533-1.26 0-2.138.669-2.138 1.636zm5.976-2.836v1.342h-.844v.967h.844v2.915c0 1.035.489 1.45 1.714 1.45.235 0 .46-.024.635-.058v-.947c-.147.014-.24.024-.41.024-.508 0-.733-.234-.733-.762V14.66h1.143v-.967h-1.143V12.35h-1.206zm6.529 6.738c1.347 0 2.192-1.06 2.192-2.759 0-1.709-.84-2.759-2.192-2.759-.733 0-1.348.357-1.626.938h-.083v-2.915h-1.211V19h1.167v-.845h.083c.302.586.923.933 1.67.933zm-.381-4.487c.825 0 1.328.654 1.328 1.728 0 1.074-.498 1.729-1.328 1.729-.83 0-1.348-.664-1.348-1.729 0-1.064.523-1.728 1.348-1.728zm6.094 4.506c1.596 0 2.568-1.044 2.568-2.778 0-1.728-.977-2.778-2.568-2.778-1.587 0-2.569 1.054-2.569 2.778 0 1.733.967 2.778 2.569 2.778zm0-1.015c-.845 0-1.329-.645-1.329-1.763 0-1.113.484-1.763 1.329-1.763.84 0 1.323.65 1.323 1.763 0 1.118-.479 1.763-1.323 1.763zm5.595-.933L82.457 19h1.367l-1.743-2.7 1.724-2.642h-1.333l-1.055 1.836h-.083l-1.065-1.836h-1.4l1.742 2.69L78.883 19h1.303l1.094-1.84h.083z"/><defs><linearGradient id="paint0_linear" x1="50" x2="50" y2="30" gradientUnits="userSpaceOnUse"><stop stop-color="#FF9E57"/><stop offset="1" stop-color="#FF5321"/></linearGradient></defs></svg>
